X:1
T:Title
%%score { ( 1 3 ) | ( 2 4 ) }
L:1/8
M:4/4
K:Bb
V:1 treble nm="Grand Piano"
V:3 treble 
V:2 bass 
V:4 bass 
V:1
 z4 z[Q:1/4=80] d/_d/ =d/B/G | F6 z2 |[M:5/8] E-E- E3 |[M:3/8] e/d/e/c/A |[M:4/4] G6 z2 | %5
[M:5/8] D-D- D3 |[M:3/8] dd/B/G |[M:4/4] z D D/D/D DB B/B/_A |[M:5/8] G-G- G3 |[M:3/8] B/A/B/A/G | %10
[M:4/4] F4[K:bass][K:treble] z4 |[M:5/8] B-B- B3 |[M:3/8] F/^F/G/F/G |[M:4/4] F6[K:bass] z2 | %14
[M:5/8] z FG/[K:treble]F/ GF |[M:3/8] FF/=E/F |[M:4/4] E6[K:bass] z2 | %17
[M:5/8] z _d=d/[K:treble]B/ GF |[M:3/8] BB/B/B |[M:4/4] B6 z2 |[M:5/8] F-F- F3 |[M:3/8] FF/=E/F | %22
[M:4/4] E6[K:bass] z2 |[M:5/8] z BB/[K:treble]B/ BB |] %24
V:2
 z8 | z [B,,B,]/[B,,B,]/ [B,,B,]/[B,,B,]/[B,,B,] .[B,,B,]2 z2 | %2
[M:5/8] z [C,F,A,]/[C,F,A,]/[C,F,A,]/[C,F,A,]/ [C,F,A,][F,A,] |[M:3/8] z3 | %4
[M:4/4] z [F,A,]/[F,A,]/ [F,A,]/[F,A,]/[F,A,] .[F,A,]2 z2 | %5
[M:5/8] z [B,,F,][B,,G,]/B,,/ [B,,G,][B,,F,] |[M:3/8] z3 | %7
[M:4/4] z [B,,B,] [B,,B,]/[B,,B,]/[B,,B,] .[B,,B,]2 z2 | %8
[M:5/8] z [E,B,][E,B,]/[E,B,]/ [E,B,][E,B,] |[M:3/8][K:treble] G/^F/G/=F/E | %10
[M:4/4] D4[K:bass][K:treble] z4 |[M:5/8] z[K:bass] [B,,_A,][B,,G,]/[B,,G,]/ [B,,^F,][B,,=F,] | %12
[M:3/8] z3 |[M:4/4] z [F,C]/[F,C]/ [F,C]/[F,C]/[F,C] .[F,C]2 z2 | %14
[M:5/8] z[K:treble] [B,D][B,E]/[B,D]/ [B,E][B,D] |[M:3/8] DD/_D/=D |[M:4/4] C6[K:bass] z2 | %17
[M:5/8] z[K:treble] [B,=E][B,F]/[K:bass][F,D]/ [G,_E][B,D] |[M:3/8] z[K:treble] _A/A/A | %19
[M:4/4] G6[K:bass][K:treble] z2 |[M:5/8] D-D- D3[K:bass] |[M:3/8] z3 | %22
[M:4/4] z [F,C] [F,C]/[F,C]/[F,C] .[F,C]2 z2 | %23
[M:5/8] z[K:treble] [_A,F][G,=E]/[K:bass][G,E]/ [^F,_E][=F,D] |] %24
V:3
 x8 | z D/D/ D/D/D DF/=E/ F/E/F |[M:5/8] z C/C/C/C/ CC |[M:3/8] x3 |[M:4/4] z E/E/ E/E/E EA A/F/E | %5
[M:5/8] z B,B,/B,/ B,B, |[M:3/8] x3 |[M:4/4] F6 z2 |[M:5/8] z EE/E/ EE |[M:3/8] x3 | %10
[M:4/4] z[K:bass] B,/B,/ B,/B,/B,[K:treble] cF G/F/G |[M:5/8] z FE/=E/ _ED |[M:3/8] x3 | %13
[M:4/4] z A/A/ A/A/A A[K:bass]F, E,/D,/C, |[M:5/8] B,,-B,,- B,,3[K:treble] |[M:3/8] x3 | %16
[M:4/4] z A A/A/A A[K:bass]F, F,/C,/D, |[M:5/8] B,,-B,,- B,,3[K:treble] |[M:3/8] x3 | %19
[M:4/4] z E E/E/E Ec c/B/G |[M:5/8] z B,B,/B,/ B,B, |[M:3/8] x3 | %22
[M:4/4] z A A/A/A A[K:bass]F, F,/_D,/=D, |[M:5/8] B,,-B,,- B,,3[K:treble] |] %24
V:4
 x8 | x8 |[M:5/8] x5 |[M:3/8] x3 |[M:4/4] x8 |[M:5/8] x5 |[M:3/8] x3 |[M:4/4] x8 |[M:5/8] x5 | %9
[M:3/8][K:treble] x3 |[M:4/4] z[K:bass] B,,/B,,/ B,,/D,/F,[K:treble] .[B,F]2 z2 | %11
[M:5/8] x[K:bass] x4 |[M:3/8] x3 |[M:4/4] x8 |[M:5/8] x[K:treble] x4 |[M:3/8] x3 | %16
[M:4/4] z[K:bass] F, F,/F,/F, .F,2 z2 |[M:5/8] x[K:treble] x3/2[K:bass] x5/2 | %18
[M:3/8] x[K:treble] x2 |[M:4/4] z[K:bass] E, E,/E,/E, E,[K:treble]^F G/G/E | %20
[M:5/8] z z z/[K:bass] F,/ D,B,, |[M:3/8] x3 |[M:4/4] x8 |[M:5/8] x[K:treble] x3/2[K:bass] x5/2 |] %24

